svg/u1f469_1f3fc_200d_1f9b2.svg

<svg viewBox="0 0 128 128" xmlns="http://www.w3.org/2000/svg">
  <linearGradient id="SVGID_1_" gradientTransform="matrix(1 0 0 -1 0 130)" gradientUnits="userSpaceOnUse" x1="64" x2="64" y1="35.6746" y2="3.0208">
    <stop offset="0" stop-color="#651FFF"/>
    <stop offset="0.7047" stop-color="#5914F2"/>
    <stop offset="1" stop-color="#530EEB"/>
  </linearGradient>
  <path d="M64.12,94.45h-0.13c-25.65,0.03-51.46,7.55-51.46,25.44v4.07h1.5h1.5h96.93h1.49h1.51v-4.07 C115.46,103.02,89.9,94.45,64.12,94.45z" fill="url(#SVGID_1_)"/>
  <path id="neck" d="M73.07,90.08H54.91v9.98c0,4.51,3.7,8.17,8.26,8.17h1.65c4.56,0,8.26-3.66,8.26-8.17v-9.98 H73.07z" fill="#C48E6A"/>
  <g id="face">
    <path id="ears_2_" d="M36.67,72.26c-5.36,0-9.71-4.67-9.71-10.41s4.36-10.41,9.71-10.41h54.65 c5.36,0,9.71,4.67,9.71,10.41s-4.36,10.41-9.71,10.41H36.67z" fill="#C48E6A"/>
    <path id="head" d="M64.18,11.91c-21,0-33.31,14.79-33.31,41.91c0,21.79,13.49,35.67,25.23,39.83 c2.8,0.99,5.5,1.49,7.9,1.49c2.38,0,5.07-0.49,7.85-1.47c11.76-4.14,25.28-18.03,25.28-39.84C97.13,26.7,85.18,11.91,64.18,11.91z" fill="#E0BB95"/>
    <g id="eyes">
      <ellipse cx="47.57" cy="58.87" fill="#5D4037" rx="4.87" ry="5.04"/>
      <ellipse cx="80.43" cy="58.87" fill="#5D4037" rx="4.87" ry="5.04"/>
    </g>
    <path id="nose" d="M67.82,68.05c-0.1-0.04-0.21-0.07-0.32-0.08h-6.99c-0.11,0.01-0.21,0.04-0.32,0.08 c-0.63,0.26-0.98,0.91-0.68,1.61s1.69,2.66,4.49,2.66c2.8,0,4.19-1.96,4.49-2.66C68.8,68.97,68.45,68.31,67.82,68.05z" fill="#C48E6A"/>
    <g id="eyebrows">
      <path d="M55.16,49.82c-0.93-1.23-3.07-3.01-7.23-3.01s-6.31,1.79-7.23,3.01c-0.41,0.54-0.31,1.17-0.02,1.55 c0.26,0.35,1.04,0.68,1.9,0.39s2.54-1.16,5.35-1.18c2.81,0.02,4.49,0.89,5.35,1.18s1.64-0.03,1.9-0.39 C55.47,50.99,55.57,50.36,55.16,49.82z" fill="#AB872F"/>
      <path d="M87.3,49.82c-0.93-1.23-3.07-3.01-7.23-3.01s-6.31,1.79-7.23,3.01c-0.41,0.54-0.31,1.17-0.02,1.55 c0.26,0.35,1.04,0.68,1.9,0.39s2.54-1.16,5.35-1.18c2.81,0.02,4.49,0.89,5.35,1.18s1.64-0.03,1.9-0.39 C87.6,50.99,87.71,50.36,87.3,49.82z" fill="#AB872F"/>
    </g>
    <path id="mouth" d="M72.31,76.14c-3.15,1.87-13.46,1.87-16.61,0c-1.81-1.07-3.65,0.57-2.9,2.21 c0.74,1.61,6.37,5.36,11.23,5.36c4.87,0,10.42-3.75,11.16-5.36C75.94,76.71,74.12,75.06,72.31,76.14z" fill="#6D4C41"/>
  </g>
</svg>

<svg viewBox="0 0 128 128" xmlns="http://www.w3.org/2000/svg">
  <defs>
    <linearGradient id="SVGID_1_" gradientTransform="matrix(1 0 0 -1 0 0)" gradientUnits="userSpaceOnUse" x1="64" x2="64" y1="-94.3254" y2="-126.9792">
      <stop offset="0" stop-color="#651FFF"/>
      <stop offset="0.7047" stop-color="#5914F2"/>
      <stop offset="1" stop-color="#530EEB"/>
    </linearGradient>
  </defs>
  <path d="M64.12,94.45 L63.99,94.45 C38.34,94.48 12.53,102 12.53,119.89 L12.53,123.96 L14.03,123.96 L15.53,123.96 L112.46,123.96 L113.95,123.96 L115.46,123.96 L115.46,119.89 C115.46,103.02 89.9,94.45 64.12,94.45 Z" fill="url(#SVGID_1_)"/>
  <path id="neck" d="M73.07,90.08 L54.91,90.08 L54.91,100.06 C54.91,104.57 58.61,108.23 63.17,108.23 L64.82,108.23 C69.38,108.23 73.08,104.57 73.08,100.06 L73.08,90.08 L73.07,90.08 Z" fill="#C48E6A"/>
  <path id="ears_2_" d="M36.67,72.26 C31.31,72.26 26.96,67.59 26.96,61.85 C26.96,56.11 31.32,51.44 36.67,51.44 L91.32,51.44 C96.68,51.44 101.03,56.11 101.03,61.85 C101.03,67.59 96.67,72.26 91.32,72.26 L36.67,72.26 Z" fill="#C48E6A"/>
  <path id="head" d="M64.18,11.91 C43.18,11.91 30.87,26.7 30.87,53.82 C30.87,75.61 44.36,89.49 56.1,93.65 C58.9,94.64 61.6,95.14 64,95.14 C66.38,95.14 69.07,94.65 71.85,93.67 C83.61,89.53 97.13,75.64 97.13,53.83 C97.13,26.7 85.18,11.91 64.18,11.91 Z" fill="#E0BB95"/>
  <path d="M52.44,58.87 A4.87 5.04 0 1 1 42.7,58.87 A4.87 5.04 0 1 1 52.44,58.87 Z" fill="#5D4037"/>
  <path d="M85.3,58.87 A4.87 5.04 0 1 1 75.56,58.87 A4.87 5.04 0 1 1 85.3,58.87 Z" fill="#5D4037"/>
  <path id="nose" d="M67.82,68.05 C67.72,68.01 67.61,67.98 67.5,67.97 L60.51,67.97 C60.4,67.98 60.3,68.01 60.19,68.05 C59.56,68.31 59.21,68.96 59.51,69.66 C59.81,70.36 61.2,72.32 64,72.32 C66.8,72.32 68.19,70.36 68.49,69.66 C68.8,68.97 68.45,68.31 67.82,68.05 Z" fill="#C48E6A"/>
  <path d="M55.16,49.82 C54.23,48.59 52.09,46.81 47.93,46.81 C43.77,46.81 41.62,48.6 40.7,49.82 C40.29,50.36 40.39,50.99 40.68,51.37 C40.94,51.72 41.72,52.05 42.58,51.76 C43.44,51.47 45.12,50.6 47.93,50.58 C50.74,50.6 52.42,51.47 53.28,51.76 C54.14,52.05 54.92,51.73 55.18,51.37 C55.47,50.99 55.57,50.36 55.16,49.82 Z" fill="#AB872F"/>
  <path d="M87.3,49.82 C86.37,48.59 84.23,46.81 80.07,46.81 C75.91,46.81 73.76,48.6 72.84,49.82 C72.43,50.36 72.53,50.99 72.82,51.37 C73.08,51.72 73.86,52.05 74.72,51.76 C75.58,51.47 77.26,50.6 80.07,50.58 C82.88,50.6 84.56,51.47 85.42,51.76 C86.28,52.05 87.06,51.73 87.32,51.37 C87.6,50.99 87.71,50.36 87.3,49.82 Z" fill="#AB872F"/>
  <path id="mouth" d="M72.31,76.14 C69.16,78.01 58.85,78.01 55.7,76.14 C53.89,75.07 52.05,76.71 52.8,78.35 C53.54,79.96 59.17,83.71 64.03,83.71 C68.9,83.71 74.45,79.96 75.19,78.35 C75.94,76.71 74.12,75.06 72.31,76.14 Z" fill="#6D4C41"/>
</svg>
